X: 180
T:Shecharchoret
C:Spanish 1971
O:Israel
F: http://www.youtube.com/watch?v=s0BL6jD56BE
M:4/4
L:1/8
K:Am
cB |: "Am"c2 B2 "Am"c2 "D"d2|"Am"e4 "G"dcBA| "C"G2 ^FE "D"F4|
 "Am"c4 "Em"B2 AB| "D"A2 G^F "C"G4| "Am"A2 BA "Am"A4|[1 "Am"A6 "Am"cB :|[2 A6 "Am"z2|
"Em"BAG^F "Am"E3 F| "D"D8| "Em"BAG^F "Am"E2 FE| "D"D6 DD| "Am"E2 ^F2 "C"G2 A2| "G"B2 cd "Em"B2 A2|
"C"G3 F "F"A2 F2| "Am"E6 DD| "Am"E2 ^F2 "C"G2 A2| "G"B2 cd "Em"B2 A2| "C"G3 F "F"A2 F2 | "Am"E6 z2|



